X:259
T:The Double Helix
C:Colin Hume, 2019
L:1/4
M:4/2
R:Reel + Triple-time
S:Colin Hume's website,  colinhume.com  - chords can also be printed below the stave.
Q:1/2=104
K:C
P:A
%%MIDI gchord fHIgfHIg
%%MIDI program 71     Clarinet
%%MIDI chordprog 46   Orchestral Harp
%%MIDI bassprog 32    Acoustic Bass
%%MIDI beat 100 95 80
%%MIDI control 10 127  Left speaker
V:1
|: "E7"E2 | "Am"AEcE AEcE | "F"AFcF AFcF | "Dm"BFdF BFdF | "Am/E"c2 BA "E7"^GABG |
"Am"AEcE AEcE | "F"AFcF A2CD | "Am"EDCD E2AB | "E7"c2B2 "Am"A2 cd ||
V:2
%%MIDI program 74     Recorder
%%MIDI control 10 0   Right speaker
|: z2 | e2 A2- A2 ag | f4 e2 dc | d2 f2 d2 f2 | a2 gf e2 d2 |
e2 A2- A2 ag | f2 A2 f2 ed | cBAB c2 a2 | e2d2 c4 ||
P:B
V:1
M:3/2
%%MIDI gchord fHIgfg
"C"eGcG "/"eG | "G/B"dGBG "/"dG | "F/A"cFAF "/"dc | "G"BDG2 "/"cd |
"C"eGcG "/"de | "Dm"fAdA "/"ef | "G"gBdf "/"ed |1-3 "C"c4 [M: 4/2] :|4 "C"c2 "Dm"DF"G7"ED | "C"C6 |]
V:2
M:3/2
g2 e2 a2 | g2 d2 g2 | f2 c2 a2 | g6 |
g2 e2 fg | a2 f2 ga | b2 g2 [ga][fb] |1-3 [ec']4 [M: 4/2] :|4 [ec']2 fagf | e6 |]

